svg/map/bed_2_line.svg

<svg xmlns="http://www.w3.org/2000/svg" width="24" height="24" viewBox="0 0 24 24"><g fill="none" fill-rule="evenodd"><path d="M24,0 L24,24 L0,24 L0,0 L24,0 Z M12.5935,23.2578 L12.5819,23.2595 L12.5109,23.295 L12.4919,23.2987 L12.4767,23.295 L12.4057,23.2595 C12.3958,23.2564 12.387,23.259 12.3821,23.2649 L12.378,23.2758 L12.3609,23.7031 L12.3659,23.7235 L12.3769,23.7357 L12.4805,23.8097 L12.4953,23.8136 L12.5071,23.8097 L12.6107,23.7357 L12.6233,23.7197 L12.6267,23.7031 L12.6096,23.2758 C12.6076,23.2657 12.601,23.2593 12.5935,23.2578 Z M12.8584,23.1453 L12.8445,23.1473 L12.6598,23.2397 L12.6499,23.2499 L12.6472,23.2611 L12.6651,23.6906 L12.6699,23.7034 L12.6784,23.7105 L12.8793,23.8032 C12.8914,23.8069 12.9022,23.803 12.9078,23.7952 L12.9118,23.7812 L12.8777,23.1665 C12.8753,23.1546 12.8674,23.147 12.8584,23.1453 Z M12.143,23.1473 C12.1332,23.1424 12.1222,23.1453 12.1156,23.1526 L12.1099,23.1665 L12.0758,23.7812 C12.0751,23.7927 12.0828,23.8019 12.0926,23.8046 L12.1083,23.8032 L12.3092,23.7105 L12.3186,23.7024 L12.3225,23.6906 L12.3404,23.2611 L12.3372,23.2485 L12.3278,23.2397 L12.143,23.1473 Z"/><path fill="#09244B" d="M17,4 C18.6569,4 20,5.34315 20,7 L20,9.17071 C21.1652,9.58254 22,10.6938 22,12 L22,17 C22,17.5523 21.5523,18 21,18 L20,18 L20,19 C20,19.5523 19.5523,20 19,20 C18.4477,20 18,19.5523 18,19 L18,18 L6,18 L6,19 C6,19.5523 5.55228,20 5,20 C4.44772,20 4,19.5523 4,19 L4,18 L3,18 C2.44772,18 2,17.5523 2,17 L2,12 C2,10.6938 2.83481,9.58254 4,9.17071 L4,7 C4,5.34315 5.34315,4 7,4 L17,4 Z M20,14 L4,14 L4,16 L20,16 L20,14 Z M19,11 L5,11 C4.44772,11 4,11.4477 4,12 L20,12 C20,11.4477 19.5523,11 19,11 Z M17,6 L7,6 C6.48716857,6 6.06449347,6.38604429 6.0067278,6.88337975 L6,7 L6,9 L18,9 L18,7 C18,6.48716857 17.613973,6.06449347 17.1166239,6.0067278 L17,6 Z"/></g></svg>

<svg xmlns="http://www.w3.org/2000/svg" width="24" height="24"><g fill="none" fill-rule="evenodd"><path d="M24 0v24H0V0zM12.594 23.258l-.012.002-.071.035-.02.004-.014-.004-.071-.036c-.01-.003-.019 0-.024.006l-.004.01-.017.428.005.02.01.013.104.074.015.004.012-.004.104-.074.012-.016.004-.017-.017-.427c-.002-.01-.009-.017-.016-.018m.264-.113-.014.002-.184.093-.01.01-.003.011.018.43.005.012.008.008.201.092c.012.004.023 0 .029-.008l.004-.014-.034-.614c-.003-.012-.01-.02-.02-.022m-.715.002a.023.023 0 0 0-.027.006l-.006.014-.034.614c0 .012.007.02.017.024l.015-.002.201-.093.01-.008.003-.011.018-.43-.003-.012-.01-.01z"/><path fill="#09244B" d="M17 4a3 3 0 0 1 3 3v2.17c1.165.413 2 1.524 2 2.83v5a1 1 0 0 1-1 1h-1v1a1 1 0 1 1-2 0v-1H6v1a1 1 0 1 1-2 0v-1H3a1 1 0 0 1-1-1v-5c0-1.306.835-2.417 2-2.83V7a3 3 0 0 1 3-3zm3 10H4v2h16zm-1-3H5a1 1 0 0 0-1 1h16a1 1 0 0 0-1-1m-2-5H7a1 1 0 0 0-.993.883L6 7v2h12V7a1 1 0 0 0-.883-.993z"/></g></svg>
